X: 1
T: Pretty Peggy
R: reel
Z: 2008 John Chambers <jc:trillian.mit.edu>
S: handwritten MS by Barbara McOwen
M: C|
L: 1/8
K: D
A \
| "D"{c}d2fd  AFDF |  "D"d2fd "A7"e{f}gfe \
| "D"d2fd "Bm"AFDF | "Em"GEFD "A7"CEE :|
A \
| "D"F{E}DAD "G"BDAD | "D"G{F}EFD "A7"CEEG \
| "D"F{E}DAD "G"BDAD | "A7"G{F}EFD "D"A,DD ||
A \
| "D"F{E}DdD cDBD | "D"ADF{E}D "A7"CEEG \
| "D"FAdf "Em"ecdB | "A7"AFGE "D"FDD |]
